X:1
T:James Gibb editions
T:Improperium exspectavit - Ravanello
T:#
%%score { 1 | 2 } 3
L:1/8
Q:1/4=69
M:4/4
K:C
V:1 treble nm="Soprano I" snm="S"
V:2 treble 
V:3 treble nm="Alto" snm="A"
V:1
 z2"^Improperium exspectavit, op.66/8""^Oreste Ravanello\n (1871-1938)""^adagio"!pp! e4 e2 | %1
w: Im- pro-|
 (e4 d2 c2 | f6 ed) | (c2 d2) e4- | e2 B4 B2 |[M:4/4] c4"^," A2 A2- | %6
w: pe\- * *||ri\- * um|* ex- spe-|cta- vit cor|
 A2"^rall."[Q:1/4=65] (A4[Q:1/4=61] ^G2) |[Q:1/4=60] A4"^a tempo"[Q:1/4=69] z4 | z8 | z8 | %10
w: * me\- *|um,|||
!mf! d2 d2!>(! f3 e!>)! |"^dolce e legato" (ecde fedc/d/ | !fermata!e4)!f! e2 e2 | e3 e e4 | %14
w: et mi- se- ri-|am: * * * * * * * *|* et su-|sti- nu- i,|
 z2!ff! e4 e2 | f3 f"^," f2!p!"^con dolore" f2 | f2 (ed) (e4- | e2 dc)"^," d2 (!^!d2- | %18
w: et su-|sti- nu- i qui|si- mul * me\-|* * * cum con\-|
 d2!<(! c2) f2 e2!<)! |!>(! (d6 ef)!>)! |"^," e2!pp! e4 c2 | (B6 c2) |"^," d2!<(! d4 f2!<)! | %23
w: * * tri- sta-|re\- * *|tur, et non|fu\- *|it, et non|
!ff! (f2 e4 d2- | d2 ^c2 d4- | d2 ^cB) c4 | z4!mf! !>!e2 !>!e2 | !>!e3 A"^," d2 c2 | f2 e4 e2- | %29
w: fu\- * *||* * * it:|con- so-|lan- tem me quae-|si- vi, et|
 e2 d2 g2 f2 |!>(! e8!>)! |"^," d4!ppp!"^adagio molto"[Q:1/4=60] d2 d2 | d2 ef d2 ef | %33
w: * * non in-|ve-|ni: et de-|de- runt in e- scam *|
 (efed cd B2- | B)c"^," !^!B2!p! B2 B2 |[Q:1/4=60][Q:1/4=60]!<(! e2 (cd)!<)! (e2 cd) | %36
w: me\- * * * * * *|* am fel, et non|si- ti * me\- * *|
 B2 !>!B3!<(! BBB!<)! |"^," e2!>(! (e4 d2- | d2!>)! c2) B4 | !fermata!A8 |] %40
w: a po- ta- ve- runt|me a\- *|* * ce-|to.|
V:2
 z2!pp! c4 c2 | (B3 E AB c2- | c2 BA ^G4) | A4 ^G4- |"^," G2 ^G4 G2 |[M:4/4] E4"^," E2 F2- | %6
w: Im- pro-|pe\- * * * *||ri- um|* ex- spe-|cta- vit cor|
 F2 (EF D4) | C4!mf! E2 E2 | F3 F"^," E2 A2- | A2 =G2 c4- | c2 B2"^,"!>(! A2 c2-!>)! | c2 B2 A3 A | %12
w: * me\- * *|um, et mi-|se- ri- am, et|* mi- se\-|* ri- am, et|* mi- se- ri-|
 !fermata!^G4!f! G2 B2 | c3 c c4 | z2!ff! c4 c2 | A3 A"^," A2!p! A2 | B6 (AG) | (A6 GF) | %18
w: am: et su-|sti- nu- i,|et su-|sti- nu- i qui|si- mul *|me\- * *|
 E3!<(! G A2 c2!<)! | (c!>(!ABc B4)!>)! |"^," B2!pp! B4 A2 | (A2 ^G^F G4) |"^," A2!<(! A4 d2!<)! | %23
w: cum con- tri- sta-|re\- * * * *|tur. et non|fu\- * * *|it, et non|
!ff! ^c4 A4 | =G4 =F4 |"^," E4!mf! !>!A2 !>!A2 | !>!A3 E G3 E | F4"^," F2 A2 | c4 B2 B2 | %29
w: fu\- *||it: con- so-|lan- tem me quae-|si- vi, quae-|si- vi, et|
 A3 B (^c2 d2- |!>(! d2 ^cB c4)!>)! |"^," d4!ppp! d2 d2 | d2 ef d2 (ef) | (efed cd B2- | %34
w: non in- ve\- *||ni: et de-|de- runt in e- scam *|me\- * * * * * *|
 B)c"^," !^!B2!p! ^G2 G2 |!<(! ^G2 A2!<)! A4 | A2 !>!^G3!<(! GGG!<)! |"^," A4 F4 | %38
w: * am fel, et non|si- ti me-|a po- ta- ve- runt|me a-|
!>(! (E2 A4!>)! ^G2) | !fermata!A8 |] %40
w: ce\- * *|to.|
V:3
 z2!pp! (A6- | A2 G2 F2) E2 | (D4 E4) | F4 E4- |"^," E2 E4 E2 |[M:4/4] A,4"^," C2 D2- | %6
w: Im\-|* * * pro-|pe\- *|ri- um|* ex- spe-|cta- vit cor|
 D2 (CD B,4) | A,4 z4 |!mf! A,2 A,2 C3 C |"^," B,2 E4 C2 | G3 G"^,"!>(! D2 A2-!>)! | A2 G2 F3 F | %12
w: * me\- * *|um,|et mi- se- ri-|am, et mi-|se- ri- am, et|* mi- se- ri-|
 !fermata!E4!f! E2 ^G2 | A3 A A4 | z2!ff! A4 A2 | D3 D"^," D2!p! D2 | G4 C4 | F4"^," B,2 (BA) | %18
w: am: et su-|sti- nu- i,|et su-|sti- nu- i qui|si- mul|me- cum con\- *|
 G3!<(! E (D2 C2!<)! |!>(! G8)!>)! |"^," ^G2!pp! G4 A2 | E8 |"^," F2!<(! F4 D2!<)! |!ff! (A3 G F4 | %24
w: tri- sta- re\- *||tur, et non|fu-|it, et non|fu\- * *|
 E4 D4) | A,8 | z8 | z4!mf! !>!A2 !>!A2 | !>!A3 E G2 G2 | F4 E2 D2 |!>(! A3 A !>!A4!>)! | %31
w: |it:||con- so-|lan- tem me quae-|si- vi, et|non in- ve-|
"^," D4!ppp! D2 D2 | D2 EF D2 (EF) | (EFED CD B,2- | B,)C"^," !^!B,2!p! E2 E2 | %35
w: ni: et de-|de- runt in e- scam *|me\- * * * * * *|* am fel, et in|
 E2 (A,!<(!B,) (C2 F2)!<)! | D2 !>!E3!<(! EED!<)! |"^," C4 D4 |!>(! (A,4!>)! E4) | !fermata!A,8 |] %40
w: si- ti * me\- *|a po- ta- ve- runt|me a-|ce\- *|to.|

